X:7556
T:Tiddlediwinks Polka
O:england
M:2/4
L:1/16
C:James S. Kent
K:G
|:D2|"G"GFGA BABc|d2g2d2>B2|"Am"c2A2"D7"D2>F2|"A7"AGFE "D7"D2D2|
"G"GFGA BABc|d2g2d2>B2|"Am"c2A2"D7"d2>F2|"G"G2G2G2:|
K:D |FG|"D"A2f2 fefg|"A7"f2e2e2 EF|G2e2 e^def|"D"e2d2d2 FG|
A2f2 fefg|"A7"f2e2g2 fe|dcBA ^GABc|"D"d2f2d2:||
